X: 219
P: Longways for as many as will
M: 3/4
L: 1/8
K: G
(E/F/ G3) G2 | G3 F G2 | (B/c/ d3) d2 | d3 c B2 |\
(e/f/ g3) e2 | a2 d2 g2 | e4 d2 | d4 :|
|: g2 |\
(f/g/ a3) b2 | g3 f g2 | (e/f/ g3) a2 | ^d4 B2 |\
(f/g/ a3) b2 | (a2 f2 g2) | f4 e2 | e4 g2 |
(B/c/ d3) e2 | c3 B c2 | (E/F/ G3) A2 | F4 D2 |\
(d/e/ f3) g2 | (d2 B2) c2 | A4 G2 | G4 :|

